icons/pn.svg

<svg viewBox="0 0 20 15" fill="none" xmlns="http://www.w3.org/2000/svg"><path d="M0 0V15H20V0H0Z" fill="#2e42a5"></path><path d="M12.9427 7.03169C12.9427 7.03169 13.0003 7.67452 12.874 8.03877C12.7478 8.40302 12.6836 8.61446 12.6836 8.38163C12.6836 8.1488 12.5949 7.96428 12.5236 7.96428C12.4522 7.96428 12.5086 8.19517 12.4369 8.19517C12.3652 8.19517 12.1182 8.23487 12.1182 8.09958C12.1182 7.96428 12.0857 8.46252 12.246 8.50708C12.4062 8.55164 12.1682 8.6899 12.0619 8.64708C12.0619 8.64708 12.4991 8.79012 12.6705 8.91201C12.6705 8.91201 13.1844 9.55789 13.6651 9.47909C13.6651 9.47909 13.0106 9.25163 13.1259 8.81705C13.2412 8.38246 13.6651 8.3196 13.6651 8.3196C13.6651 8.3196 13.864 8.38657 13.8581 8.562C13.8521 8.73742 14.0035 8.50708 14.0035 8.50708C14.0035 8.50708 14.0279 8.28544 14.001 8.23135C13.9741 8.17726 14.4566 8.07257 14.4871 7.84433C14.4871 7.84433 13.9941 7.86702 13.9602 7.80839C13.9264 7.74975 14.1128 7.65783 14.0545 7.54353C13.9962 7.42923 13.1259 8.19517 13.1259 8.19517C13.1259 8.19517 13.4264 7.67384 13.4264 7.39388C13.4264 7.11393 13.3501 6.92261 13.1259 6.92261C12.9017 6.92261 12.9427 7.03169 12.9427 7.03169Z" fill="#5eaa22"></path><path d="M17.4736 7.18464C17.473 7.18556 17.4742 7.18637 17.4749 7.18562C17.5068 7.15399 17.7069 6.96822 17.8745 7.1147C18.0572 7.27435 17.7825 7.42993 17.7825 7.42993C17.7825 7.42993 17.9109 7.55534 18.0578 7.55534C18.2047 7.55534 18.2407 7.42993 18.2407 7.42993C18.2407 7.42993 18.2519 7.70902 18.731 7.8147C18.731 7.8147 18.9019 7.56766 18.731 7.43241C18.731 7.43241 18.9329 7.39024 18.9182 7.22561C18.9182 7.22561 18.7522 7.28254 18.6339 7.15171C18.5155 7.02088 18.2848 6.96055 18.1171 6.99072C17.6907 6.83592 17.4991 7.1398 17.4736 7.18464Z" fill="#5eaa22"></path><path d="M14.5688 8.59257C14.5688 8.59257 15.0642 9.53058 14.7546 9.72494C14.445 9.91931 16.2268 9.78105 16.3947 9.72494C16.5626 9.66884 16.3608 9.37309 16.1746 9.29099C15.9884 9.20888 15.223 8.93571 15.0193 8.72969C14.8157 8.52366 14.9401 8.45056 15.1041 8.24718C15.2681 8.0438 15.8752 7.96248 15.8752 7.77238C15.8752 7.58229 16.2603 6.79832 16.5295 6.73917C16.7987 6.68003 16.6533 6.58688 16.5914 6.58688C16.5295 6.58688 16.1574 6.97299 16.0163 6.90333C15.8752 6.83367 15.858 6.83857 16.0163 6.67018C16.1746 6.50179 16.2938 6.30799 16.0845 6.44743C15.8752 6.58688 15.5302 6.80757 15.3643 6.80757C15.1985 6.80757 14.608 6.73229 14.6813 6.90333C14.7546 7.07436 14.7857 7.37125 15.1041 7.57182C15.4225 7.77238 15.2841 7.91916 15.0193 8.11243C14.7546 8.3057 14.5688 8.59257 14.5688 8.59257Z" fill="#96877D"></path><path d="M17.8559 7.35217L16.912 9.25792C16.912 9.25792 16.8844 9.79625 17.5593 9.43754C18.2341 9.07882 18.2076 8.8244 18.4021 8.8244C18.5967 8.8244 18.6585 8.71564 18.6585 8.71564L18.5289 8.61304C18.5289 8.61304 18.5139 8.42591 18.596 8.38388C18.596 8.38388 18.4349 8.29457 18.4119 8.36914C18.3889 8.4437 18.2754 8.21316 18.3396 8.21316C18.3396 8.21316 18.1976 8.44461 18.1677 8.53491C18.1677 8.53491 17.9622 8.45082 17.972 8.06118C17.9819 7.67155 17.8559 7.35217 17.8559 7.35217Z" fill="#ffd018"></path><path d="M13.3629 7.05037C13.3629 7.05037 12.8822 7.16301 12.934 7.28023C12.9859 7.39746 13.0623 7.27707 12.8269 7.41834C12.8269 7.41834 12.4135 7.74013 12.3234 7.70525C12.2333 7.67038 12.3872 7.7863 12.3872 7.41834C12.3872 7.05037 12.1471 7.3499 12.3872 7.10426C12.6273 6.85862 12.7115 7.05037 12.8269 6.90902C12.9424 6.76768 12.8386 6.84284 13.1518 6.84284C13.4649 6.84284 13.3629 7.05037 13.3629 7.05037Z" fill="#ffd018"></path><path d="M14.8295 8.94446C14.8295 8.94446 13.4837 10.0091 13.2148 10.0886C12.9458 10.168 13.768 10.0667 13.9688 9.92615C14.1697 9.7856 14.8295 8.94446 14.8295 8.94446Z" fill="#ffd018"></path><path d="M17.4976 10.8121C17.4976 10.8121 17.6268 11.651 17.2896 11.5684C16.9524 11.4858 16.8124 11.4431 16.8124 11.4431C16.8124 11.4431 16.9361 11.8339 17.1128 11.8339C17.1128 11.8339 17.414 12.4246 17.2981 12.6111C17.2981 12.6111 17.8168 12.1875 17.733 11.8507C17.6491 11.5139 17.867 11.9061 17.867 11.9061C17.867 11.9061 18.0579 11.9989 18.1959 11.8953C18.3339 11.7917 18.1942 11.8377 18.0562 11.6404C17.9182 11.4431 17.9523 10.8891 17.5325 10.6019C17.1128 10.3148 17.0151 10.3239 17.0151 10.3239C17.0151 10.3239 16.706 9.81519 16.8912 9.84883C16.8912 9.84883 18.2184 10.3068 18.2529 10.4242C18.2874 10.5416 18.6393 10.5201 18.4633 10.1845C18.2874 9.84883 17.3387 9.64656 17.2258 9.55191C17.1128 9.45726 17.2179 9.09827 17.0151 9.02006C16.8124 8.94186 16.2585 8.38692 16.2588 8.1195C16.2592 7.85207 15.9985 7.72619 15.7718 7.72619C15.5452 7.72619 15.1185 7.66028 14.9382 7.66028C14.7579 7.66028 14.5898 7.96388 14.764 7.96388C14.9382 7.96388 14.7894 8.5323 14.4978 8.65652C14.2061 8.78075 13.9807 8.9593 13.6476 8.9593C13.3146 8.9593 14.1191 9.24835 14.2473 9.13421C14.3755 9.02006 14.3334 8.84998 14.764 8.65652C15.1946 8.46307 15.6055 8.34853 15.5535 8.50253C15.5015 8.65652 15.6342 8.91411 15.8371 8.82088C16.0399 8.72765 16.105 8.49217 16.105 8.65652C16.105 8.82088 16.416 9.66503 16.6536 9.99449C16.8912 10.3239 17.4976 10.8121 17.4976 10.8121Z" fill="#5eaa22"></path><path d="M14.6665 7.72974C14.6665 7.72974 14.5087 7.98281 14.6665 7.98281C14.8243 7.98281 15.0781 7.98281 14.9235 7.85628C14.7689 7.72974 14.6665 7.72974 14.6665 7.72974Z" fill="#ffd018"></path><path d="M15.1937 7.72358C15.1937 7.72358 15.1945 7.89184 15.3038 7.89184C15.4132 7.89184 15.5105 8.0601 15.5105 7.89184C15.5105 7.72358 15.6625 7.77938 15.4281 7.72358C15.1937 7.66778 15.1937 7.72358 15.1937 7.72358Z" fill="#ffd018"></path><path d="M15.8673 7.76221C15.8673 7.76221 15.7619 7.84211 15.8146 7.98464C15.8673 8.12717 15.9866 8.40922 15.8146 8.40922C15.6427 8.40922 15.5012 8.51091 15.6355 8.51091C15.7698 8.51091 16.0088 8.6126 16.0088 8.51091C16.0088 8.40922 16.106 8.67859 16.106 8.51091C16.106 8.34324 16.106 8.26312 16.106 8.16478C16.106 8.06644 16.2032 8.03817 16.106 7.90019C16.0088 7.76221 15.8673 7.76221 15.8673 7.76221Z" fill="#ffd018"></path><path d="M16.1108 8.74341C16.1108 8.74341 16.3306 9.43953 16.45 9.52928C16.5695 9.61903 16.6231 10.375 16.6756 10.4572C16.728 10.5394 17.4424 10.9543 17.4424 11.1769C17.4424 11.3995 17.6624 11.0058 17.5524 10.7854C17.4424 10.5649 17.0961 10.0955 16.847 9.99317C16.5979 9.8908 16.6295 9.64295 16.5772 9.46875C16.5248 9.29455 16.8871 9.6095 16.5772 9.21437C16.2673 8.81924 16.2755 9.03127 16.3628 9.03127C16.45 9.03127 16.5373 8.98458 16.45 8.92318C16.3628 8.86178 16.1108 8.74341 16.1108 8.74341Z" fill="#ffd018"></path><path d="M13.7815 10.179C13.7815 10.179 13.0679 11.4477 12.9405 11.5133C12.8132 11.5788 12.7182 11.5922 12.6532 11.5133C12.5881 11.4344 12.5814 11.725 12.6532 11.8045C12.7249 11.8841 12.9405 11.8841 13.0602 11.7428C13.0602 11.7428 13.0791 12.0997 13.2655 12.3688C13.4519 12.6379 13.5295 12.5636 13.5295 12.7158C13.5295 12.868 13.5736 13.0694 13.6305 13.0694C13.6873 13.0694 13.7314 13.5484 13.6305 13.5484C13.5295 13.5484 13.8644 13.5877 14.0103 13.4679C14.1563 13.3481 14.2187 13.2569 14.1875 13.2569C14.1563 13.2569 13.7815 13.0583 13.7815 12.9178C13.7815 12.7773 13.5295 12.6672 13.5295 12.4586C13.5295 12.25 13.3986 12.002 13.3986 11.9033C13.3986 11.8045 13.5105 11.9414 13.6305 11.8479C13.7504 11.7543 13.7815 11.5133 13.7815 11.5133C13.7815 11.5133 13.5927 11.6408 13.5295 11.5771C13.4664 11.5133 13.2676 11.3874 13.3986 11.1714C13.5295 10.9554 13.7815 10.179 13.7815 10.179Z" fill="#ffd018"></path><path d="M15.0183 6.17749C15.0183 6.17749 14.7628 6.29191 14.848 6.46192C14.9331 6.63192 14.9638 6.7072 15.0183 6.66956C15.0729 6.63192 15.4557 6.56076 15.37 6.36912C15.2842 6.17749 15.1046 6.17749 15.1046 6.17749H15.0183Z" fill="#5eaa22"></path><path d="M15.9047 6.08555C15.9047 6.08555 15.5672 5.9352 15.6797 6.08555C15.7922 6.23591 15.9362 6.31517 16.0397 6.31517C16.1433 6.31517 16.3584 6.28409 16.2509 6.22343C16.1433 6.16277 15.9047 6.08555 15.9047 6.08555Z" fill="#ffd018"></path><path d="M12.5726 9.99245C12.5743 9.98364 12.5638 9.97747 12.5573 9.98367C12.4875 10.0506 12.2755 10.2763 12.3652 10.4725C12.4719 10.7059 12.5787 10.787 12.5787 10.787C12.5787 10.787 12.6437 11.1443 12.778 11.2416C12.778 11.2416 12.9585 11.2323 12.9674 10.9541C12.9674 10.9541 13.2738 10.8636 13.3639 11.0563C13.3639 11.0563 13.3045 11.0779 13.3045 11.2416C13.3045 11.4053 13.4432 11.5826 13.4432 11.5826C13.4432 11.5826 13.5066 11.0181 13.792 10.6541C14.0773 10.2901 14.159 10.2183 14.159 10.2183V9.80872C14.159 9.80872 13.5686 10.293 13.4432 10.6957C13.4432 10.6957 13.1458 10.7056 13.025 10.6541C12.9042 10.6025 13.1759 10.518 13.025 10.3347C12.8742 10.1515 12.9433 10.5927 12.778 10.4725C12.5186 10.3999 12.5548 10.0886 12.5726 9.99245Z" fill="#5eaa22"></path><path d="M13.859 9.6377L16.8834 9.6377V11.4978C16.8834 11.4978 16.6368 13.0177 15.3197 13.7665C15.3197 13.7665 14.044 13.0074 13.859 11.4978V9.6377Z" fill="#5eaa22"></path><path d="M15.2968 9.53723L13.9755 12.2976L15.7674 10.6594L17.0008 12.7172V9.53723L15.7674 10.555L15.2968 9.53723Z" fill="#58A5FF"></path><path d="M15.2551 11.5273C15.2551 11.4729 15.2993 11.4287 15.3537 11.4287C15.4082 11.4287 15.4523 11.4729 15.4523 11.5273V13.3011C15.4523 13.3555 15.4082 13.3997 15.3537 13.3997C15.2993 13.3997 15.2551 13.3555 15.2551 13.3011L15.2551 11.5273Z" fill="#ffd018"></path><path d="M14.9129 11.965C14.8591 11.965 14.8154 11.9214 14.8154 11.8675C14.8154 11.8137 14.8591 11.77 14.9129 11.77H15.8025C15.8564 11.77 15.9 11.8137 15.9 11.8675C15.9 11.9214 15.8564 11.965 15.8025 11.965H14.9129Z" fill="#ffd018"></path><path d="M15.498 13.4387L15.412 13.509C15.2853 13.354 15.1697 13.2795 15.0675 13.2795C14.9171 13.2795 14.7948 13.1531 14.6951 12.9136L14.7976 12.8708C14.882 13.0735 14.9738 13.1683 15.0675 13.1683C15.2095 13.1683 15.3523 13.2604 15.498 13.4387Z" fill="#ffd018"></path><path d="M14.5954 12.5321C14.5948 12.5315 14.5939 12.5319 14.5939 12.5327V13.0734C14.5939 13.074 14.5945 13.0745 14.5951 13.0742L14.9991 12.9068C14.9997 12.9066 14.9998 12.9058 14.9993 12.9053L14.5954 12.5321Z" fill="#ffd018"></path><path d="M15.3189 13.4387L15.4049 13.509C15.5316 13.354 15.6472 13.2795 15.7494 13.2795C15.8998 13.2795 16.0221 13.1531 16.1218 12.9136L16.0192 12.8708C15.9349 13.0735 15.8431 13.1683 15.7494 13.1683C15.6074 13.1683 15.4646 13.2604 15.3189 13.4387Z" fill="#ffd018"></path><path d="M16.2215 12.5321C16.2221 12.5315 16.223 12.5319 16.223 12.5327V13.0734C16.223 13.074 16.2224 13.0745 16.2218 13.0742L15.8178 12.9068C15.8172 12.9066 15.8171 12.9058 15.8176 12.9053L16.2215 12.5321Z" fill="#ffd018"></path><rect x="15.1549" y="10.7323" width="0.394366" height="0.591529" fill="#fff"></rect><rect width="11" height="9" fill="#2e42a5"></rect><mask id="mask2" maskUnits="userSpaceOnUse" x="0" y="0" width="11" height="9"><rect width="11" height="9" fill="#fff"></rect></mask><g mask="url(#mask2)"><path d="M-1.25269 8.12482L1.22291 9.21057L11.3062 1.1804L12.612 -0.43306L9.96468 -0.795949L5.85197 2.66448L2.54165 4.996L-1.25269 8.12482Z" fill="#f7fcff"></path><path d="M-0.913818 8.88555L0.347383 9.51562L12.143 -0.582947H10.3721L-0.913818 8.88555Z" fill="#f50100"></path><path d="M12.5027 8.12493L10.3056 9.52063L-0.0561562 1.1805L-1.36198 -0.432954L1.28532 -0.795844L5.39803 2.66459L8.70835 4.99611L12.5027 8.12493Z" fill="#f7fcff"></path><path d="M12.4182 8.67082L11.157 9.3009L6.13431 4.97718L4.64518 4.4941L-1.48763 -0.427482H0.283246L6.41261 4.37728L8.04071 4.95655L12.4182 8.67082Z" fill="#f50100"></path><path d="M6 0H5V4H0V5H5V9H6V5H11V4H6V0Z" fill="#f50100"></path><path d="M5 0V-0.9375H4.0625V0H5ZM6 0H6.9375V-0.9375H6V0ZM5 4V4.9375H5.9375V4H5ZM0 4V3.0625H-0.9375V4H0ZM0 5H-0.9375V5.9375H0V5ZM5 5H5.9375V4.0625H5V5ZM5 9H4.0625V9.9375H5V9ZM6 9V9.9375H6.9375V9H6ZM6 5V4.0625H5.0625V5H6ZM11 5V5.9375H11.9375V5H11ZM11 4H11.9375V3.0625H11V4ZM6 4H5.0625V4.9375H6V4ZM5 0.9375H6V-0.9375H5V0.9375ZM5.9375 4V0H4.0625V4H5.9375ZM0 4.9375H5V3.0625H0V4.9375ZM0.9375 5V4H-0.9375V5H0.9375ZM5 4.0625H0V5.9375H5V4.0625ZM5.9375 9V5H4.0625V9H5.9375ZM6 8.0625H5V9.9375H6V8.0625ZM5.0625 5V9H6.9375V5H5.0625ZM11 4.0625H6V5.9375H11V4.0625ZM10.0625 4V5H11.9375V4H10.0625ZM6 4.9375H11V3.0625H6V4.9375ZM5.0625 0V4H6.9375V0H5.0625Z" fill="#f7fcff" mask="url(#path-11-outside-1)"></path></g></svg>

<svg xmlns="http://www.w3.org/2000/svg" width="20" height="15" fill="transparent" viewBox="0 0 20 15"><g clip-path="url(#a)"><mask id="b" width="20" height="15" x="0" y="0" maskUnits="userSpaceOnUse" style="mask-type:luminance"><path fill="#fff" d="M0 0h20v15H0z"/></mask><g mask="url(#b)"><path fill="#2E42A5" fill-rule="evenodd" d="M0 0v15h20V0H0Z" clip-rule="evenodd"/><mask id="c" width="20" height="15" x="0" y="0" maskUnits="userSpaceOnUse" style="mask-type:luminance"><path fill="#fff" fill-rule="evenodd" d="M0 0v15h20V0H0Z" clip-rule="evenodd"/></mask><g mask="url(#c)"><path fill="#5EAA22" fill-rule="evenodd" d="M12.943 7.032s.057.643-.07 1.007c-.125.364-.19.575-.19.343 0-.233-.088-.418-.16-.418-.07 0-.015.231-.086.231-.072 0-.319.04-.319-.095 0-.136-.032.363.128.407.16.045-.078.183-.184.14 0 0 .437.143.608.265 0 0 .514.646.995.567 0 0-.655-.227-.54-.662.116-.435.54-.497.54-.497s.199.067.193.242c-.006.175.145-.055.145-.055s.025-.222-.002-.276c-.027-.054.456-.158.486-.387 0 0-.493.023-.527-.036-.034-.058.153-.15.094-.264-.058-.115-.928.651-.928.651s.3-.521.3-.801-.076-.471-.3-.471c-.224 0-.183.109-.183.109Zm4.53.153h.002c.032-.031.232-.217.4-.07.182.16-.093.315-.093.315s.129.125.276.125c.147 0 .183-.125.183-.125s.01.279.49.385c0 0 .17-.247 0-.383 0 0 .202-.042.187-.206 0 0-.166.057-.284-.074-.119-.131-.35-.191-.517-.161-.426-.155-.618.149-.644.194Z" clip-rule="evenodd"/><path fill="#96877D" fill-rule="evenodd" d="M14.569 8.593s.495.938.185 1.132c-.31.194 1.473.056 1.64 0 .168-.056-.034-.352-.22-.434-.186-.082-.951-.355-1.155-.561-.204-.206-.08-.28.085-.483.164-.203.771-.285.771-.475s.385-.974.654-1.033c.27-.059.124-.152.062-.152s-.434.386-.575.316c-.141-.07-.158-.064 0-.233.158-.168.278-.362.068-.223-.209.14-.554.36-.72.36-.166 0-.756-.075-.683.096.073.171.104.468.423.669.318.2.18.347-.085.54-.265.194-.45.48-.45.48Z" clip-rule="evenodd"/><path fill="#FFD018" d="m17.856 7.352-.944 1.906s-.028.538.647.18c.675-.36.648-.614.843-.614.194 0 .256-.108.256-.108l-.13-.103s-.014-.187.068-.23c0 0-.161-.089-.184-.014-.023.075-.137-.156-.073-.156 0 0-.142.231-.172.322 0 0-.205-.084-.195-.474.01-.39-.116-.709-.116-.709Zm-4.493-.302s-.48.113-.429.23c.052.117.128-.003-.107.138 0 0-.413.322-.504.287-.09-.035.064.081.064-.287s-.24-.068 0-.314.324-.054.44-.195c.115-.141.012-.066.325-.066s.21.207.21.207Zm1.467 1.894s-1.346 1.065-1.615 1.144c-.27.08.553-.021.754-.162.2-.14.86-.982.86-.982Z"/><path fill="#5EAA22" fill-rule="evenodd" d="M17.497 10.812s.13.839-.207.756a10.146 10.146 0 0 1-.478-.125s.124.39.3.39c0 0 .302.591.186.778 0 0 .519-.424.435-.76-.084-.337.134.055.134.055s.19.093.329-.01c.138-.105-.002-.058-.14-.256-.138-.197-.104-.751-.524-1.038-.42-.287-.517-.278-.517-.278s-.31-.509-.124-.475c0 0 1.327.458 1.362.575.034.117.386.096.21-.24-.176-.335-1.124-.538-1.237-.632-.113-.095-.008-.454-.211-.532-.203-.078-.757-.633-.756-.9 0-.268-.26-.394-.487-.394-.227 0-.654-.066-.834-.066-.18 0-.348.304-.174.304s.025.568-.266.692c-.292.125-.517.303-.85.303-.333 0 .47.29.6.175.127-.114.085-.284.516-.478.43-.193.841-.308.79-.154-.053.154.08.412.283.319.203-.093.268-.329.268-.165 0 .165.31 1.009.549 1.338.237.33.843.818.843.818Z" clip-rule="evenodd"/><path fill="#FFD018" d="M14.666 7.73s-.158.253 0 .253.412 0 .257-.127c-.154-.127-.257-.127-.257-.127Zm.528-.007s0 .169.11.169.206.168.206 0c0-.169.152-.113-.082-.169-.234-.055-.234 0-.234 0Zm.673.039s-.105.08-.053.222c.053.143.172.425 0 .425-.171 0-.313.102-.179.102.135 0 .374.101.374 0 0-.102.097.167.097 0v-.346c0-.099.097-.127 0-.265s-.239-.138-.239-.138Zm.243.981s.22.696.34.786c.12.09.173.846.226.928.052.082.766.497.766.72 0 .222.22-.171.11-.392-.11-.22-.456-.69-.705-.792-.25-.102-.218-.35-.27-.524-.052-.175.31.14 0-.255s-.302-.183-.214-.183c.087 0 .174-.047.087-.108s-.34-.18-.34-.18Zm-2.329 1.436s-.713 1.268-.84 1.334c-.128.066-.223.079-.288 0-.065-.079-.072.212 0 .291.072.08.287.08.407-.062 0 0 .02.357.205.627.187.269.264.194.264.347 0 .152.045.353.101.353.057 0 .101.48 0 .48-.1 0 .234.039.38-.081s.209-.211.178-.211c-.032 0-.407-.199-.407-.34 0-.14-.252-.25-.252-.459 0-.208-.13-.456-.13-.555 0-.099.112.038.232-.055.12-.094.15-.335.15-.335s-.188.128-.252.064c-.063-.064-.261-.19-.13-.406.13-.216.383-.992.383-.992Z"/><path fill="#5EAA22" fill-rule="evenodd" d="M15.018 6.177s-.256.115-.17.285c.085.17.115.245.17.207.055-.037.438-.108.352-.3-.086-.192-.266-.192-.266-.192h-.086Z" clip-rule="evenodd"/><path fill="#FFD018" d="M15.905 6.085s-.338-.15-.225 0c.112.15.256.23.36.23.103 0 .318-.031.21-.092-.107-.06-.345-.138-.345-.138Z"/><path fill="#5EAA22" fill-rule="evenodd" d="M12.572 9.992c.002-.008-.008-.015-.015-.008-.07.066-.282.292-.192.488.107.234.213.315.213.315s.066.357.2.454c0 0 .18-.009.19-.287 0 0 .306-.09.396.102 0 0-.06.022-.06.186 0 .163.139.34.139.34s.064-.564.349-.928c.285-.364.367-.436.367-.436v-.41s-.59.485-.716.887c0 0-.297.01-.418-.041-.12-.052.15-.136 0-.32-.151-.183-.082.259-.247.138-.26-.072-.223-.383-.206-.48Z" clip-rule="evenodd"/><path fill="#5EAA22" fill-rule="evenodd" d="M13.859 9.638h3.024v1.86s-.246 1.52-1.563 2.269c0 0-1.276-.76-1.461-2.27v-1.86Z" clip-rule="evenodd"/><mask id="d" width="4" height="5" x="13" y="9" maskUnits="userSpaceOnUse" style="mask-type:luminance"><path fill="#fff" fill-rule="evenodd" d="M13.859 9.638h3.024v1.86s-.246 1.52-1.563 2.269c0 0-1.276-.76-1.461-2.27v-1.86Z" clip-rule="evenodd"/></mask><g mask="url(#d)"><path fill="#58A5FF" fill-rule="evenodd" d="m15.297 9.537-1.322 2.76 1.792-1.638 1.234 2.058v-3.18l-1.234 1.018-.47-1.018Z" clip-rule="evenodd"/><path fill="#FFD018" d="M15.255 11.527a.098.098 0 0 1 .197 0v1.774a.099.099 0 0 1-.197 0v-1.774Z"/><path fill="#FFD018" d="M14.913 11.965a.097.097 0 1 1 0-.195h.89c.053 0 .097.043.097.097a.097.097 0 0 1-.098.098h-.89Zm.585 1.474-.086.07c-.127-.155-.243-.23-.345-.23-.15 0-.272-.126-.372-.365l.102-.043c.085.202.177.297.27.297.142 0 .285.092.43.27Z"/><path fill="#FFD018" fill-rule="evenodd" d="M14.595 12.532h-.001v.541l.001.001.404-.167v-.002l-.404-.373Z" clip-rule="evenodd"/><path fill="#FFD018" d="m15.319 13.439.086.07c.127-.155.242-.23.344-.23.15 0 .273-.126.373-.365l-.103-.043c-.084.202-.176.297-.27.297-.142 0-.284.092-.43.27Z"/><path fill="#FFD018" fill-rule="evenodd" d="M16.221 12.532h.002v.541l-.001.001-.404-.167v-.002l.403-.373Z" clip-rule="evenodd"/><path fill="#fff" d="M15.155 10.732h.394v.592h-.394z"/></g><path fill="#2E42A5" d="M0 0h11v9H0z"/><mask id="e" width="11" height="9" x="0" y="0" maskUnits="userSpaceOnUse" style="mask-type:luminance"><path fill="#fff" d="M0 0h11v9H0z"/></mask><g mask="url(#e)"><path fill="#F7FCFF" d="M-1.253 8.125 1.223 9.21l10.083-8.03 1.306-1.614-2.647-.363-4.113 3.46-3.31 2.332-3.795 3.129Z"/><path fill="#F50100" d="m-.914 8.886 1.261.63L12.143-.583h-1.77L-.915 8.886Z"/><path fill="#F7FCFF" d="M12.503 8.125 10.306 9.52-.056 1.18-1.362-.434l2.647-.363 4.113 3.46 3.31 2.332 3.795 3.129Z"/><path fill="#F50100" d="m12.418 8.67-1.261.63-5.023-4.323-1.489-.483-6.133-4.922H.283l6.13 4.805 1.628.58 4.377 3.714Z"/><mask id="f" width="13" height="11" x="-1" y="-1" fill="#000" maskUnits="userSpaceOnUse"><path fill="#fff" d="M-1-1h13v11H-1z"/><path fill-rule="evenodd" d="M6 0H5v4H0v1h5v4h1V5h5V4H6V0Z" clip-rule="evenodd"/></mask><path fill="#F50100" fill-rule="evenodd" d="M6 0H5v4H0v1h5v4h1V5h5V4H6V0Z" clip-rule="evenodd"/><path fill="#F7FCFF" d="M5 0v-.938h-.938V0H5Zm1 0h.938v-.938H6V0ZM5 4v.938h.938V4H5ZM0 4v-.938h-.938V4H0Zm0 1h-.938v.938H0V5Zm5 0h.938v-.938H5V5Zm0 4h-.938v.938H5V9Zm1 0v.938h.938V9H6Zm0-4v-.938h-.938V5H6Zm5 0v.938h.938V5H11Zm0-1h.938v-.938H11V4ZM6 4h-.938v.938H6V4ZM5 .937h1V-.938H5V.938ZM5.938 4V0H4.063v4h1.875ZM0 4.938h5V3.063H0v1.874ZM.938 5V4H-.938v1H.938ZM5 4.062H0v1.875h5V4.063ZM5.938 9V5H4.063v4h1.875ZM6 8.062H5v1.876h1V8.062ZM5.062 5v4h1.875V5H5.063ZM11 4.062H6v1.875h5V4.063ZM10.062 4v1h1.876V4h-1.876ZM6 4.938h5V3.063H6v1.874ZM5.062 0v4h1.875V0H5.063Z" mask="url(#f)"/></g></g></g></g><defs><clipPath id="a"><rect width="20" height="15" fill="#fff" rx="2"/></clipPath></defs></svg>
